src/icons/paper-airplane.svg

<svg xmlns="http://www.w3.org/2000/svg" width="512" height="512" viewBox="0 0 512 512">
    <path d="M96 261.6l97.1 36.4 12.2 121.5 60.7-85 85 85 85-340L96 261.6zM337.8 372L266 298.1l97.1-133.6-145.7 116.8-62.7-23.5 244.4-130.9L337.8 372z"/>
</svg>

<?xml version="1.0" encoding="UTF-8"?>
<svg width="512px" height="512px" viewBox="0 0 512 512" version="1.1" xmlns="http://www.w3.org/2000/svg" xmlns:xlink="http://www.w3.org/1999/xlink">
    <!-- Generator: Sketch 62 (91390) - https://sketch.com -->
    <title>paper-airplane</title>
    <desc>Created with Sketch.</desc>
    <g id="paper-airplane" stroke="none" stroke-width="1" fill="none" fill-rule="evenodd">
        <path d="M96,261.6 L193.1,298 L205.3,419.5 L266,334.5 L351,419.5 L436,79.5 L96,261.6 Z M337.8,372 L266,298.1 L363.1,164.5 L217.4,281.3 L154.7,257.8 L399.1,126.9 L337.8,372 Z" id="Shape" fill="#000000" fill-rule="nonzero"></path>
    </g>
</svg>
